svgs/sharp-light/mosquito-net.svg

<svg xmlns="http://www.w3.org/2000/svg" viewBox="0 0 640 512"><!--! Font Awesome Pro 6.6.0 by @fontawesome - https://fontawesome.com License - https://fontawesome.com/license (Commercial License) Copyright 2024 Fonticons, Inc. --><path d="M161.7 440.8L192 380.2l0-44.2 0-6.6 4.7-4.7L244 277.4l0-24.7L139.2 344C87.8 395.3 0 358.9 0 286.3c0-41.1 30.6-75.8 71.4-80.9l159.9-23.9-49.6-41.3-8.4-7 3.5-10.4 13.9-41.7-29-58.1L190.3 8.8l32 64 3 5.9-2.1 6.3-12.5 37.6L244 150.5l0-12.6 0-44 35.8 0 0-30.2 0-8.2 16.3 0 0 8.2 0 30.2 35.8 0 0 44 0 12.6 33.4-27.8L352.8 85.1l-2.1-6.3 3-5.9 32-64 28.6 14.3-29 58.1 13.9 41.7 3.5 10.4-8.4 7-49.6 41.3 159.9 23.9c16.2 2 30.7 8.7 42.4 18.5l-67 0-16 0-52 0-77.5-11.6L384 255.5l0 .5-32 0 0 14.1-20-17.4 0 24.7 20 20 0 45.3-20-20 0 38 0 44-88 0 0-44 0-38-20 20 0 41.4 0 3.8-1.7 3.4-32 64-28.6-14.3zM361.4 352l2.8 0c-.4 .5-.9 1-1.3 1.5l-1.5-1.5zM118.2 319.8L241.5 212.4 76.1 237.1l-.8 .1C50.6 240.3 32 261.4 32 286.3c0 44.1 53.3 66.2 84.6 35c.5-.5 1.1-1 1.6-1.5zM528 272l0 16 48 0 0-16 0-16 32 0 0 16 0 16 16 0 16 0 0 32-16 0-16 0 0 48 16 0 16 0 0 32-16 0-16 0 0 48 16 0 16 0 0 32-16 0-16 0 0 16 0 16-32 0 0-16 0-16-48 0 0 16 0 16-32 0 0-16 0-16-48 0 0 16 0 16-32 0 0-16 0-16-16 0-16 0 0-32 16 0 16 0 0-48-16 0-16 0 0-32 16 0 16 0 0-48-16 0-16 0 0-32 16 0 16 0 0-16 0-16 32 0 0 16 0 16 48 0 0-16 0-16 32 0 0 16zm48 48l-48 0 0 48 48 0 0-48zm0 80l-48 0 0 48 48 0 0-48zM448 368l48 0 0-48-48 0 0 48zm0 80l48 0 0-48-48 0 0 48zM272 360.6l0 16 32 0 0-16 0-222.7 0-16-32 0 0 16 0 222.7z"/></svg>

<svg xmlns="http://www.w3.org/2000/svg" viewBox="0 0 640 512"><!--! Font Awesome Pro 6.4.0 by @fontawesome - https://fontawesome.com License - https://fontawesome.com/license (Commercial License) Copyright 2023 Fonticons, Inc. --><path d="M161.7 440.8L192 380.2l0-44.2v-6.6l4.7-4.7L244 277.4V252.7L139.2 344C87.8 395.3 0 358.9 0 286.3c0-41.1 30.6-75.8 71.4-80.9l159.9-23.9-49.6-41.3-8.4-7 3.5-10.4 13.9-41.7-29-58.1L190.3 8.8l32 64 3 5.9-2.1 6.3-12.5 37.6L244 150.5V137.9v-44l35.8 0V63.7 55.5l16.3 0v8.2V93.9H332v44 12.6l33.4-27.8L352.8 85.1l-2.1-6.3 3-5.9 32-64 28.6 14.3-29 58.1 13.9 41.7 3.5 10.4-8.4 7-49.6 41.3 159.9 23.9c16.2 2 30.7 8.7 42.4 18.5H480 464 412l-77.5-11.6L384 255.5v.5H352v14.1l-20-17.4v24.7l20 20v45.3l-20-20v38 44H244l0-44v-38l-20 20 0 41.4v3.8l-1.7 3.4-32 64-28.6-14.3zM361.4 352h2.8c-.4 .5-.9 1-1.3 1.5l-1.5-1.5zM118.2 319.8L241.5 212.4 76.1 237.1l-.8 .1C50.6 240.3 32 261.4 32 286.3c0 44.1 53.3 66.2 84.6 35c.5-.5 1.1-1 1.6-1.5zM528 272v16h48V272 256h32v16 16h16 16v32H624 608v48h16 16v32H624 608v48h16 16v32H624 608v16 16H576V496 480H528v16 16H496V496 480H448v16 16H416V496 480H400 384V448h16 16V400H400 384V368h16 16V320H400 384V288h16 16V272 256h32v16 16h48V272 256h32v16zm48 48H528v48h48V320zm0 80H528v48h48V400zM448 368h48V320H448v48zm0 80h48V400H448v48zM272 360.6v16h32v-16l0-222.7v-16H272v16l0 222.7z"/></svg>
